X: 65
T:Heartsease
M:6/8
L:1/8
Q:160
S:Playford
O:Manuscript
A:English
K:Gm
G|G>AB A2 G|^F2 G A2 D|G2 A B2 c|d3 d3 G|G>AB A2 G|^F2 G A2 D|G2 A B2 c| d3 d2:|
|: d|ABc c>dc|f2 c c2 A|B2 A B2 c|d3 d2 d|c2 B A>Bc|B2 A dAB|A G ^F>=GF|G3 G2:|

